src/assets/curso/temas/tema5/img_16.svg

<svg height="190" viewBox="0 0 190 190" width="190" xmlns="http://www.w3.org/2000/svg"><path d="m81.042 37.272-23.094 26.928-4.722 5.509v45.671a4.934 4.934 0 0 1 -4.919 4.919h-4.919a4.934 4.934 0 0 1 -4.919-4.919v-45.669l-4.722-5.511-23.094-26.953a6.355 6.355 0 0 1 0-8.485 6.149 6.149 0 0 1 9.124.221l18.692 21.817v-26.416a7.378 7.378 0 0 1 7.772-7.378 7.693 7.693 0 0 1 6.985 7.8v26l18.691-21.822a6.149 6.149 0 0 1 9.124-.221 6.394 6.394 0 0 1 0 8.51z" fill="#a0522d" transform="translate(34.178 45.804)"/><path d="m26.226 24.8v22.651a4.193 4.193 0 0 0 7.378 2.73v-25.381a7.691 7.691 0 0 0 -5.9-7.664 7.339 7.339 0 0 0 -5.226.908 7.971 7.971 0 0 1 3.748 6.756z" fill="#783e22" transform="translate(53.8 45.804)"/><path d="m61.383 22.921a6.134 6.134 0 0 0 -8.168-.674 6.149 6.149 0 0 1 .789.674 6.394 6.394 0 0 1 0 8.51l-23.093 26.93-4.722 5.509v45.671a4.919 4.919 0 0 1 -3.689 4.742 4.729 4.729 0 0 0 1.23.177h4.919a4.934 4.934 0 0 0 4.919-4.919v-45.671l4.722-5.509 23.093-26.931a6.394 6.394 0 0 0 0-8.51z" fill="#783e22" transform="translate(53.837 51.645)"/><path d="m104.171 71.683a.2.2 0 0 0 -.074.2.312.312 0 0 0 .025.148 19.963 19.963 0 0 1 -18.814 22.43 19.609 19.609 0 0 1 -15.642-6.911l23.094-26.934a6.394 6.394 0 0 0 0-8.51 6.149 6.149 0 0 0 -9.124.221l-18.692 21.815v-26a7.693 7.693 0 0 0 -6.985-7.8 7.378 7.378 0 0 0 -7.772 7.378v26.422l-18.687-21.815a6.149 6.149 0 0 0 -9.124-.221 6.355 6.355 0 0 0 0 8.485l23.089 26.955a19.609 19.609 0 0 1 -15.642 6.911 19.963 19.963 0 0 1 -18.814-22.43.312.312 0 0 0 .025-.148.2.2 0 0 0 -.074-.2 20.9 20.9 0 0 1 5.165-37.9.187.187 0 0 0 .148-.246 18.5 18.5 0 0 1 -.492-5.411 18.669 18.669 0 0 1 19.719-17.236 16.5 16.5 0 0 1 3.148.516.246.246 0 0 0 .221-.1 22.105 22.105 0 0 1 37.383 0 .246.246 0 0 0 .221.1 16.5 16.5 0 0 1 3.148-.516 18.669 18.669 0 0 1 19.724 17.24 18.5 18.5 0 0 1 -.492 5.411.187.187 0 0 0 .148.246 20.9 20.9 0 0 1 5.165 37.9z" fill="#60a917" transform="translate(22.46 22.46)"/><g fill="#549414"><path d="m14.161 5.078c-.386.057-.767.138-1.146.219.246.052.492.091.726.155a.246.246 0 0 0 .221-.1c.061-.094.138-.178.199-.274z" transform="translate(39.994 28.411)"/><path d="m37.5 11.306a.246.246 0 0 0 .221.1 16.5 16.5 0 0 1 3.148-.516 17.843 17.843 0 0 1 3.81.143 21.751 21.751 0 0 0 -22.179-9.688 22.061 22.061 0 0 1 15 9.961z" transform="translate(53.837 22.458)"/><path d="m38.313 23.131-11.313 13.205v8.608l18.692-21.815a6.427 6.427 0 0 1 .957-.9 6.149 6.149 0 0 0 -8.335.9z" transform="translate(60.404 51.656)"/><path d="m15.032 22.917a6.326 6.326 0 0 1 .792-.671 6.149 6.149 0 0 0 -8.17.671 6.355 6.355 0 0 0 0 8.485l23.093 26.955a19.572 19.572 0 0 1 -11.2 6.549 19.139 19.139 0 0 0 2.932.362 19.609 19.609 0 0 0 15.642-6.911l-23.089-26.957a6.355 6.355 0 0 1 0-8.485z" transform="translate(29.8 51.649)"/><path d="m68.913 48.03a20.937 20.937 0 0 0 -15.125-20.093.187.187 0 0 1 -.148-.246 18.5 18.5 0 0 0 .492-5.411 18.669 18.669 0 0 0 -19.724-17.24 16.667 16.667 0 0 0 -2.423.362 18.692 18.692 0 0 1 14.769 16.878 18.5 18.5 0 0 1 -.492 5.411.187.187 0 0 0 .148.246 20.9 20.9 0 0 1 5.165 37.9.2.2 0 0 0 -.074.2.312.312 0 0 0 .025.148 20.007 20.007 0 0 1 -15.884 22.064 19.653 19.653 0 0 0 23.258-22.068.312.312 0 0 1 -.025-.148.2.2 0 0 1 .074-.2 20.9 20.9 0 0 0 9.964-17.803z" transform="translate(67.679 28.306)"/><path d="m25.772 17.006a7.378 7.378 0 0 0 -7.772 7.378v17.8l7.378 8.616v-26.416a7.378 7.378 0 0 1 3.622-6.337 6.923 6.923 0 0 0 -3.224-1.04z" transform="translate(47.269 45.804)"/></g><path d="m73.338 120.6-9.764 21.52a2.42 2.42 0 0 1 -4.5 0l-9.789-21.52a2.774 2.774 0 0 1 2.263-4.009h4.845v-88.535h-4.846a2.774 2.774 0 0 1 -2.263-4.009l9.788-21.52a2.42 2.42 0 0 1 4.5 0l9.764 21.52a2.764 2.764 0 0 1 -2.236 4.009h-4.87v88.544h4.87a2.764 2.764 0 0 1 2.238 4.009z" fill="#ef314c" transform="translate(92.497 22.456)"/><path d="m61.108 28.056h4.87a2.764 2.764 0 0 0 2.238-4.009l-9.764-21.519a2.42 2.42 0 0 0 -4.5 0l-1.452 3.172 8.337 18.352a2.764 2.764 0 0 1 -2.237 4.004z" fill="#bb193b" transform="translate(97.619 22.456)"/><path d="m58.6 48a2.764 2.764 0 0 1 2.238 4.009l-8.338 18.352 1.441 3.168a2.42 2.42 0 0 0 4.5 0l9.764-21.52a2.764 2.764 0 0 0 -2.227-4.009z" fill="#bb193b" transform="translate(97.619 91.052)"/><path d="m12.469 20.981h-.155a2.459 2.459 0 0 1 -2.3-2.6 10.925 10.925 0 0 1 3.79-7.558 11.129 11.129 0 0 1 7.305-2.823 2.459 2.459 0 1 1 0 4.919 6.208 6.208 0 0 0 -4.063 1.6 6.045 6.045 0 0 0 -2.125 4.156 2.459 2.459 0 0 1 -2.452 2.307z" fill="#f5f5f5" transform="translate(35.605 32.675)"/><path d="m0 55.334a23.276 23.276 0 0 0 9.907 19.1 22.351 22.351 0 0 0 5.256 16.026 21.916 21.916 0 0 0 31.647 2.176l2.378 2.787v44.761a7.378 7.378 0 0 0 7.378 7.378h4.919a7.378 7.378 0 0 0 7.378-7.378v-44.761l2.381-2.777a21.938 21.938 0 0 0 14.835 5.728c.246 0 .521 0 .78-.012a22.061 22.061 0 0 0 16.03-7.9 22.381 22.381 0 0 0 5.246-16.021 23.364 23.364 0 0 0 -5.034-40.9 20.347 20.347 0 0 0 .152-4.1 21.1 21.1 0 0 0 -22.338-19.554 20.278 20.278 0 0 0 -2.014.246 24.567 24.567 0 0 0 -39.756 0q-.984-.17-2.012-.246a21.1 21.1 0 0 0 -22.333 19.552 20.347 20.347 0 0 0 .152 4.1 23.465 23.465 0 0 0 -14.952 21.795zm64.537 37.566a2.459 2.459 0 0 0 -.593 1.6v45.684a2.459 2.459 0 0 1 -2.459 2.459h-4.919a2.459 2.459 0 0 1 -2.459-2.459v-45.684a2.459 2.459 0 0 0 -.593-1.6l-27.808-32.445a3.913 3.913 0 0 1 -.108-5.192 3.672 3.672 0 0 1 2.685-1.163h.1a3.667 3.667 0 0 1 2.705 1.289l18.695 21.817a2.459 2.459 0 0 0 4.324-1.6v-26.42a4.919 4.919 0 0 1 5.184-4.919 5.211 5.211 0 0 1 4.654 5.333v26a2.459 2.459 0 0 0 4.326 1.6l18.691-21.807a3.689 3.689 0 0 1 5.487-.13 3.92 3.92 0 0 1 -.108 5.2zm-46.244-55.3a2.659 2.659 0 0 0 1.83-3.2 15.219 15.219 0 0 1 -.416-4.673 16.188 16.188 0 0 1 17.086-14.934 15.211 15.211 0 0 1 2.705.435 2.831 2.831 0 0 0 2.912-1.156 19.638 19.638 0 0 1 33.239.039 2.836 2.836 0 0 0 2.885 1.117 15.211 15.211 0 0 1 2.705-.435 16.188 16.188 0 0 1 17.086 14.949 15.219 15.219 0 0 1 -.416 4.673 2.661 2.661 0 0 0 1.852 3.2 18.446 18.446 0 0 1 4.557 33.448 2.688 2.688 0 0 0 -1.2 2.75 17.366 17.366 0 0 1 -4.006 13.482 17.014 17.014 0 0 1 -24.693 1.605l21.643-25.241a8.876 8.876 0 0 0 -.062-11.805 8.608 8.608 0 0 0 -12.777.325l-14.359 16.778v-19.357a10.057 10.057 0 0 0 -9.311-10.241 9.776 9.776 0 0 0 -7.3 2.691 9.877 9.877 0 0 0 -3.067 7.132v19.775l-14.368-16.766a8.608 8.608 0 0 0 -12.774-.33 8.871 8.871 0 0 0 -.071 11.805l21.642 25.249a17.014 17.014 0 0 1 -24.69-1.615 17.341 17.341 0 0 1 -4.014-13.451l.017-.135a2.826 2.826 0 0 0 -1.23-2.661 18.446 18.446 0 0 1 4.587-33.448z" transform="translate(21 21.002)"/><path d="m72.545 31.972a4.887 4.887 0 0 0 4.107-2.285 5.411 5.411 0 0 0 .369-5.2l-9.766-21.536a4.919 4.919 0 0 0 -4.498-2.951h-.027a4.882 4.882 0 0 0 -4.45 2.966l-9.788 21.522a5.411 5.411 0 0 0 .371 5.184 4.919 4.919 0 0 0 4.129 2.3h2.386v83.62h-2.385a4.919 4.919 0 0 0 -4.129 2.3 5.411 5.411 0 0 0 -.371 5.187l9.781 21.5a4.889 4.889 0 0 0 4.461 2.983h.022a4.936 4.936 0 0 0 4.5-2.973l9.761-21.52a5.411 5.411 0 0 0 -.369-5.2 4.887 4.887 0 0 0 -4.1-2.28h-2.41v-83.617zm-4.87 88.539 4.8-.02a.492.492 0 0 1 .066.551l-9.786 21.52-9.786-21.52a.652.652 0 0 1 .022-.531h4.845a2.459 2.459 0 0 0 2.459-2.459v-88.539a2.459 2.459 0 0 0 -2.459-2.459l-4.786.015a.492.492 0 0 1 -.081-.546l9.81-21.523 9.764 21.522a.782.782 0 0 1 0 .531h-4.868a2.459 2.459 0 0 0 -2.459 2.459v88.539a2.459 2.459 0 0 0 2.459 2.46z" transform="translate(91.052 21)"/><path d="m57.3 2.459a2.459 2.459 0 0 0 -2.462-2.459h-7.379a2.459 2.459 0 0 0 0 4.919h7.378a2.459 2.459 0 0 0 2.463-2.46z" transform="translate(86.674 21)"/><path d="m40.459 0a2.459 2.459 0 0 0 0 4.919h7.378a2.459 2.459 0 0 0 0-4.919z" transform="translate(76.458 21)"/><path d="m33.459 0a2.459 2.459 0 0 0 0 4.919h7.378a2.459 2.459 0 1 0 0-4.919z" transform="translate(66.242 21)"/><path d="m47.459 58a2.459 2.459 0 1 0 0 4.919h7.378a2.459 2.459 0 1 0 0-4.919z" transform="translate(86.674 105.646)"/><path d="m40.459 58a2.459 2.459 0 1 0 0 4.919h7.378a2.459 2.459 0 1 0 0-4.919z" transform="translate(76.458 105.646)"/><path d="m33.459 58a2.459 2.459 0 1 0 0 4.919h7.378a2.459 2.459 0 1 0 0-4.919z" transform="translate(66.242 105.646)"/><path d="m0 0h190v190h-190z" fill="none"/></svg>

<svg xmlns="http://www.w3.org/2000/svg" width="190" height="190" viewBox="0 0 190 190"><g transform="translate(-1125.051 -3612)"><g transform="translate(1146.051 3633)"><g transform="translate(0 0)"><path d="M81.042,37.272,57.948,64.2l-4.722,5.509v45.671a4.934,4.934,0,0,1-4.919,4.919H43.388a4.934,4.934,0,0,1-4.919-4.919V69.711L33.747,64.2,10.653,37.247a6.355,6.355,0,0,1,0-8.485,6.149,6.149,0,0,1,9.124.221L38.469,50.8V24.384a7.378,7.378,0,0,1,7.772-7.378,7.693,7.693,0,0,1,6.985,7.8v26L71.917,28.984a6.149,6.149,0,0,1,9.124-.221,6.394,6.394,0,0,1,0,8.51Z" transform="translate(13.178 24.804)" fill="sienna"/><path d="M26.226,24.8V47.451a4.193,4.193,0,0,0,7.378,2.73V24.8a7.691,7.691,0,0,0-5.9-7.664,7.339,7.339,0,0,0-5.226.908A7.971,7.971,0,0,1,26.226,24.8Z" transform="translate(32.8 24.804)" fill="#783e22"/><path d="M61.383,22.921a6.134,6.134,0,0,0-8.168-.674,6.149,6.149,0,0,1,.789.674,6.394,6.394,0,0,1,0,8.51L30.911,58.361,26.189,63.87v45.671a4.919,4.919,0,0,1-3.689,4.742,4.729,4.729,0,0,0,1.23.177h4.919a4.934,4.934,0,0,0,4.919-4.919V63.87l4.722-5.509L61.383,31.43a6.394,6.394,0,0,0,0-8.51Z" transform="translate(32.837 30.645)" fill="#783e22"/><path d="M104.171,71.683a.2.2,0,0,0-.074.2.312.312,0,0,0,.025.148,19.963,19.963,0,0,1-18.814,22.43,19.609,19.609,0,0,1-15.642-6.911L92.76,60.616a6.394,6.394,0,0,0,0-8.51,6.149,6.149,0,0,0-9.124.221L64.944,74.142v-26a7.693,7.693,0,0,0-6.985-7.8,7.378,7.378,0,0,0-7.772,7.378V74.142L31.5,52.327a6.149,6.149,0,0,0-9.124-.221,6.355,6.355,0,0,0,0,8.485L45.465,87.546a19.609,19.609,0,0,1-15.642,6.911,19.963,19.963,0,0,1-18.814-22.43.312.312,0,0,0,.025-.148.2.2,0,0,0-.074-.2,20.9,20.9,0,0,1,5.165-37.9.187.187,0,0,0,.148-.246,18.5,18.5,0,0,1-.492-5.411A18.669,18.669,0,0,1,35.5,10.886a16.5,16.5,0,0,1,3.148.516.246.246,0,0,0,.221-.1,22.105,22.105,0,0,1,37.383,0,.246.246,0,0,0,.221.1,16.5,16.5,0,0,1,3.148-.516,18.669,18.669,0,0,1,19.724,17.24,18.5,18.5,0,0,1-.492,5.411.187.187,0,0,0,.148.246,20.9,20.9,0,0,1,5.165,37.9Z" transform="translate(1.46 1.46)" fill="#60a917"/><path d="M14.161,5.078c-.386.057-.767.138-1.146.219.246.052.492.091.726.155a.246.246,0,0,0,.221-.1C14.023,5.258,14.1,5.174,14.161,5.078Z" transform="translate(18.994 7.411)" fill="#549414"/><path d="M37.5,11.306a.246.246,0,0,0,.221.1,16.5,16.5,0,0,1,3.148-.516,17.843,17.843,0,0,1,3.81.143A21.751,21.751,0,0,0,22.5,1.345a22.061,22.061,0,0,1,15,9.961Z" transform="translate(32.837 1.458)" fill="#549414"/><path d="M38.313,23.131,27,36.336v8.608L45.692,23.129a6.427,6.427,0,0,1,.957-.9,6.149,6.149,0,0,0-8.335.9Z" transform="translate(39.404 30.656)" fill="#549414"/><path d="M15.032,22.917a6.326,6.326,0,0,1,.792-.671,6.149,6.149,0,0,0-8.17.671,6.355,6.355,0,0,0,0,8.485L30.747,58.357a19.572,19.572,0,0,1-11.2,6.549,19.139,19.139,0,0,0,2.932.362,19.609,19.609,0,0,0,15.642-6.911L15.032,31.4a6.355,6.355,0,0,1,0-8.485Z" transform="translate(8.8 30.649)" fill="#549414"/><path d="M68.913,48.03A20.937,20.937,0,0,0,53.788,27.937a.187.187,0,0,1-.148-.246,18.5,18.5,0,0,0,.492-5.411A18.669,18.669,0,0,0,34.408,5.04a16.667,16.667,0,0,0-2.423.362A18.692,18.692,0,0,1,46.754,22.28a18.5,18.5,0,0,1-.492,5.411.187.187,0,0,0,.148.246,20.9,20.9,0,0,1,5.165,37.9.2.2,0,0,0-.074.2.312.312,0,0,0,.025.148A20.007,20.007,0,0,1,35.642,88.249,19.653,19.653,0,0,0,58.9,66.181a.312.312,0,0,1-.025-.148.2.2,0,0,1,.074-.2A20.9,20.9,0,0,0,68.913,48.03Z" transform="translate(46.679 7.306)" fill="#549414"/><path d="M25.772,17.006A7.378,7.378,0,0,0,18,24.384v17.8L25.378,50.8V24.384A7.378,7.378,0,0,1,29,18.047a6.923,6.923,0,0,0-3.224-1.04Z" transform="translate(26.269 24.804)" fill="#549414"/><path d="M73.338,120.6l-9.764,21.52a2.42,2.42,0,0,1-4.5,0L49.285,120.6a2.774,2.774,0,0,1,2.263-4.009h4.845V28.056H51.547a2.774,2.774,0,0,1-2.263-4.009l9.788-21.52a2.42,2.42,0,0,1,4.5,0l9.764,21.52A2.764,2.764,0,0,1,71.1,28.056H66.23V116.6H71.1a2.764,2.764,0,0,1,2.238,4.009Z" transform="translate(71.497 1.456)" fill="#ef314c"/><path d="M61.108,28.056h4.87a2.764,2.764,0,0,0,2.238-4.009L58.452,2.528a2.42,2.42,0,0,0-4.5,0L52.5,5.7l8.337,18.352A2.764,2.764,0,0,1,58.6,28.056Z" transform="translate(76.619 1.456)" fill="#bb193b"/><path d="M58.6,48a2.764,2.764,0,0,1,2.238,4.009L52.5,70.361l1.441,3.168a2.42,2.42,0,0,0,4.5,0l9.764-21.52A2.764,2.764,0,0,0,65.978,48Z" transform="translate(76.619 70.052)" fill="#bb193b"/><path d="M12.469,20.981h-.155a2.459,2.459,0,0,1-2.3-2.6,10.925,10.925,0,0,1,3.79-7.558A11.129,11.129,0,0,1,21.109,8a2.459,2.459,0,1,1,0,4.919,6.208,6.208,0,0,0-4.063,1.6,6.045,6.045,0,0,0-2.125,4.156,2.459,2.459,0,0,1-2.452,2.307Z" transform="translate(14.605 11.675)" fill="#f5f5f5"/><path d="M0,55.334a23.276,23.276,0,0,0,9.907,19.1,22.351,22.351,0,0,0,5.256,16.026A21.916,21.916,0,0,0,46.81,92.636l2.378,2.787v44.761a7.378,7.378,0,0,0,7.378,7.378h4.919a7.378,7.378,0,0,0,7.378-7.378V95.423l2.381-2.777a21.938,21.938,0,0,0,14.835,5.728c.246,0,.521,0,.78-.012a22.061,22.061,0,0,0,16.03-7.9,22.381,22.381,0,0,0,5.246-16.021,23.364,23.364,0,0,0-5.034-40.9,20.347,20.347,0,0,0,.152-4.1A21.1,21.1,0,0,0,80.915,9.887a20.278,20.278,0,0,0-2.014.246,24.567,24.567,0,0,0-39.756,0q-.984-.17-2.012-.246A21.1,21.1,0,0,0,14.8,29.439a20.347,20.347,0,0,0,.152,4.1A23.465,23.465,0,0,0,0,55.334ZM64.537,92.9a2.459,2.459,0,0,0-.593,1.6v45.684a2.459,2.459,0,0,1-2.459,2.459H56.566a2.459,2.459,0,0,1-2.459-2.459V94.5a2.459,2.459,0,0,0-.593-1.6L25.706,60.455a3.913,3.913,0,0,1-.108-5.192A3.672,3.672,0,0,1,28.283,54.1h.1a3.667,3.667,0,0,1,2.705,1.289L49.783,77.206a2.459,2.459,0,0,0,4.324-1.6V49.186a4.919,4.919,0,0,1,5.184-4.919A5.211,5.211,0,0,1,63.945,49.6v26a2.459,2.459,0,0,0,4.326,1.6L86.962,55.393a3.689,3.689,0,0,1,5.487-.13,3.92,3.92,0,0,1-.108,5.2ZM18.293,37.6a2.659,2.659,0,0,0,1.83-3.2,15.219,15.219,0,0,1-.416-4.673A16.188,16.188,0,0,1,36.793,14.793a15.211,15.211,0,0,1,2.705.435,2.831,2.831,0,0,0,2.912-1.156,19.638,19.638,0,0,1,33.239.039,2.836,2.836,0,0,0,2.885,1.117,15.211,15.211,0,0,1,2.705-.435A16.188,16.188,0,0,1,98.325,29.742a15.219,15.219,0,0,1-.416,4.673,2.661,2.661,0,0,0,1.852,3.2,18.446,18.446,0,0,1,4.557,33.448,2.688,2.688,0,0,0-1.2,2.75,17.366,17.366,0,0,1-4.006,13.482A17.014,17.014,0,0,1,74.419,88.9L96.062,63.659A8.876,8.876,0,0,0,96,51.854a8.608,8.608,0,0,0-12.777.325L68.864,68.957V49.6a10.057,10.057,0,0,0-9.311-10.241,9.776,9.776,0,0,0-7.3,2.691,9.877,9.877,0,0,0-3.067,7.132V68.957L34.818,52.191a8.608,8.608,0,0,0-12.774-.33,8.871,8.871,0,0,0-.071,11.805L43.615,88.915A17.014,17.014,0,0,1,18.925,87.3a17.341,17.341,0,0,1-4.014-13.451l.017-.135a2.826,2.826,0,0,0-1.23-2.661,18.446,18.446,0,0,1,4.587-33.448Z" transform="translate(0 0.002)"/><path d="M72.545,31.972a4.887,4.887,0,0,0,4.107-2.285,5.411,5.411,0,0,0,.369-5.2L67.255,2.951A4.919,4.919,0,0,0,62.757,0H62.73A4.882,4.882,0,0,0,58.28,2.966L48.492,24.488a5.411,5.411,0,0,0,.371,5.184,4.919,4.919,0,0,0,4.129,2.3h2.386v83.62H52.993a4.919,4.919,0,0,0-4.129,2.3,5.411,5.411,0,0,0-.371,5.187l9.781,21.5a4.889,4.889,0,0,0,4.461,2.983h.022a4.936,4.936,0,0,0,4.5-2.973l9.761-21.52a5.411,5.411,0,0,0-.369-5.2,4.887,4.887,0,0,0-4.1-2.28h-2.41V31.972Zm-4.87,88.539,4.8-.02a.492.492,0,0,1,.066.551l-9.786,21.52-9.786-21.52a.652.652,0,0,1,.022-.531h4.845a2.459,2.459,0,0,0,2.459-2.459V29.513a2.459,2.459,0,0,0-2.459-2.459l-4.786.015a.492.492,0,0,1-.081-.546L62.779,5l9.764,21.522a.782.782,0,0,1,0,.531H67.675a2.459,2.459,0,0,0-2.459,2.459v88.539A2.459,2.459,0,0,0,67.675,120.511Z" transform="translate(70.052 0)"/><path d="M57.3,2.459A2.459,2.459,0,0,0,54.838,0H47.459a2.459,2.459,0,0,0,0,4.919h7.378A2.459,2.459,0,0,0,57.3,2.459Z" transform="translate(65.674 0)"/><path d="M40.459,0a2.459,2.459,0,0,0,0,4.919h7.378a2.459,2.459,0,0,0,0-4.919Z" transform="translate(55.458 0)"/><path d="M33.459,0a2.459,2.459,0,0,0,0,4.919h7.378a2.459,2.459,0,1,0,0-4.919Z" transform="translate(45.242 0)"/><path d="M47.459,58a2.459,2.459,0,1,0,0,4.919h7.378a2.459,2.459,0,1,0,0-4.919Z" transform="translate(65.674 84.646)"/><path d="M40.459,58a2.459,2.459,0,1,0,0,4.919h7.378a2.459,2.459,0,1,0,0-4.919Z" transform="translate(55.458 84.646)"/><path d="M33.459,58a2.459,2.459,0,1,0,0,4.919h7.378a2.459,2.459,0,1,0,0-4.919Z" transform="translate(45.242 84.646)"/></g></g><rect width="190" height="190" transform="translate(1125.051 3612)" fill="none"/></g></svg>
